!!!OTL: O wie reent et! (287), S. 600f
!!!id: T0477
**kern
*clefG2
*k[f#c#]
*D:
{8d
=1
8d
4.dd
=2yy
8cc#
=3
8cc#
8b
4b
=4
4.cc#
8b
=5
8b
8a
8a}
=6
{8d
=7
8d
8f#
8f#
8a
=8
4.a}
=9
{8f#
=10
8a
8a
8g
8g
=11
4f#}
4r
==
*-
!!!minrhy: 8
!!!meters: 2/4 ]  ZZ[3
!!!cut: O wie reent et! (287), S. 600f
!!!reg: Luxemburg
!!!trd: Singendes Volk, Esch-Alzette, 1937 posth.
!!!rhy1:   X_.X  XXX_  X_.X  XXX
!!!rhy2: X  XXXX  X_.
!!!key: T0477  08  D 2/4 ]  ZZ[3
!!!mod: SECHSTONSKALA DUR ?]  AMBITUS[8
!!!kad: 553
!!!akz: +1776_15_53_
!!!fot: 'a__b__c__
!!!for: 'a__b__bv_
!!!fok: '\__/__^__
!! PHRAS[VORWIEGEND AUFTAKTIG]
!!!fkt: ???
!!!bem: Lullingen, mitgeteilt: hhh Heinrich Godefroid (Lehrer)
!! THILL; Mathias
!! PR[46] 2K[0] 2G[9] 3K[6] 3G[0] 4A[7] 4Ü[0] 5A[0] 6K[0] 6G[0]
!! 7K[0] 7G[0] 8A[0] MEHR[0] SI[21] ABS[90] SR[9] SP[12]
!! ST[20] 2k[7] 2g[21] 3k[4] 3g[0] 4d[1] 4ü[0] 5d[0] 6k[0] 6g[0]
!! 7k[0] 7g[0] 8d[0] mehr[0] si[33] dm[-12] sr[28] sp[6]
!! 1F[41] 2F[53] 3F[6] 4F[0] LF[0] 2P[0] 3P[0] 4P[0] TRI[0] DF[3] AB[93]
!! TF[0] U3K[0] U3[5] U4[0] U4Ü[0] U5[13] U6K[0] U6[15] U7K[0] U7[4]
!! N1[38] N2K[0] N2[12] N3K[0] N3[4] N4[4] N4Ü[0] N5[2] N6K[0] N6[0]
!!!n7k: 0] N7[0] O1[0] O2K[0] O2[0] O3K[0] O3[0] HÖ[0
